X: 1
T:Harry Gidley's Waltz
M:3/4
L:1/4
C:trad - as played by Tim Willets. Usual "session key" is D
K:C
G|cBc|EDC|cBc|D3|BAG|BAG|BAG|E2G|cBc|EDC|cBc|D3|BAG|BAG|FED|C3||
G3|E3|A3|F3|F2F|D2A|A2G|E3|G3|E3|F3|A2A|BAG|FED|CEG|c3||
